pix/a/setting.svg

<!DOCTYPE svg PUBLIC "-//W3C//DTD SVG 1.1//EN" "http://www.w3.org/Graphics/SVG/1.1/DTD/svg11.dtd" [
	<!ENTITY ns_flows "http://ns.adobe.com/Flows/1.0/">
]><svg xmlns="http://www.w3.org/2000/svg" width="16" height="16" viewBox="0 0 16 16" preserveAspectRatio="xMinYMid meet" overflow="visible"><path d="M15.9 9.3c.1-.4.1-.9.1-1.3s0-.9-.1-1.3l-2.1-.4c-.1-.4-.3-.8-.5-1.2l1.2-1.8c-.5-.7-1.1-1.3-1.9-1.8l-1.8 1.2c-.4-.2-.8-.4-1.2-.5L9.3.1C8.9 0 8.4 0 8 0s-.9 0-1.3.1l-.4 2.1c-.4.2-.8.3-1.2.5L3.4 1.5C2.6 2 2 2.6 1.5 3.4l1.2 1.8c-.2.3-.3.7-.5 1.1l-2.1.4C0 7.1 0 7.6 0 8s0 .9.1 1.3l2.1.4c.1.4.3.8.5 1.2l-1.2 1.8c.5.7 1.1 1.3 1.9 1.8l1.8-1.2c.4.2.8.4 1.2.5l.4 2.1c.3.1.8.1 1.2.1s.9 0 1.3-.1l.4-2.1c.4-.1.8-.3 1.2-.5l1.8 1.2c.7-.5 1.3-1.1 1.9-1.9l-1.2-1.8c.2-.4.4-.8.5-1.2l2-.3zM8 10c-1.1 0-2-.9-2-2s.9-2 2-2 2 .9 2 2-.9 2-2 2z" fill="#999"/></svg>

<?xml version="1.0" encoding="utf-8"?>
<!-- Generator: Adobe Illustrator 15.1.0, SVG Export Plug-In  -->
<!DOCTYPE svg PUBLIC "-//W3C//DTD SVG 1.1//EN" "http://www.w3.org/Graphics/SVG/1.1/DTD/svg11.dtd" [
	<!ENTITY ns_flows "http://ns.adobe.com/Flows/1.0/">
]>
<svg version="1.1"
	 xmlns="http://www.w3.org/2000/svg" xmlns:xlink="http://www.w3.org/1999/xlink" xmlns:a="http://ns.adobe.com/AdobeSVGViewerExtensions/3.0/"
	 x="0px" y="0px" width="16px" height="16px" viewBox="0 0 16 16" style="overflow:visible;enable-background:new 0 0 16 16;"
	 xml:space="preserve" preserveAspectRatio="xMinYMid meet">
<defs>
</defs>
<path style="fill:#999999;" d="M15.9,9.3C16,8.9,16,8.4,16,8s0-0.9-0.1-1.3l-2.1-0.4c-0.1-0.4-0.3-0.8-0.5-1.2l1.2-1.8
	C14,2.6,13.4,2,12.6,1.5l-1.8,1.2c-0.4-0.2-0.8-0.4-1.2-0.5L9.3,0.1C8.9,0,8.4,0,8,0S7.1,0,6.7,0.1L6.3,2.2C5.9,2.4,5.5,2.5,5.1,2.7
	L3.4,1.5C2.6,2,2,2.6,1.5,3.4l1.2,1.8C2.5,5.5,2.4,5.9,2.2,6.3L0.1,6.7C0,7.1,0,7.6,0,8c0,0.4,0,0.9,0.1,1.3l2.1,0.4
	c0.1,0.4,0.3,0.8,0.5,1.2l-1.2,1.8C2,13.4,2.6,14,3.4,14.5l1.8-1.2c0.4,0.2,0.8,0.4,1.2,0.5l0.4,2.1C7.1,16,7.6,16,8,16
	s0.9,0,1.3-0.1l0.4-2.1c0.4-0.1,0.8-0.3,1.2-0.5l1.8,1.2c0.7-0.5,1.3-1.1,1.9-1.9l-1.2-1.8c0.2-0.4,0.4-0.8,0.5-1.2L15.9,9.3z M8,10
	c-1.1,0-2-0.9-2-2c0-1.1,0.9-2,2-2s2,0.9,2,2C10,9.1,9.1,10,8,10z"/>
</svg>
